X: 20
T: Lady Ann Stewart's Reel
R: reel
B: Cahusac "Annual Collection of Twenty-four favorite Country Dances For the Year 1809", p.10 #2
F: http://imslp.org/wiki/24_Country_Dances_for_the_Year_1809_%28Various%29
F: http://javanese.imslp.info/files/imglnks/usimg/0/0d/IMSLP351863-PMLP71785-wm_cahusac_24_dances_1809.pdf
Z: 2015 by John Chambers  <jc:trillian.mit.edu>
M: C|
L: 1/8
K: A
% - - - - - - - - - - - - - - - - - - - - - - - - - - - - -
B |\
(A/B/c) BA (BA).F.B | (A/B/c) BA ceae |\
(A/B/c) BA (BA).F.B | AFEF A2A :|\
|: f |\
ecac BAFB | ecac faea |
ecac (BA)FB | {B}AFEF A2-Ae/f/ |\
ecac BAFB | ecac faea |\
dfca cAFB | {B}AFEF A2A :|
% - - - - - - - - - - Dance description - - - - - - - - - -
%%begintext align
%% Cast off, Down the mid: up again, hands 4 round,
%% Swing corners, & foot it outsides.
%%endtext

%%sep 1 1 500
%%sep 1 1 500
